src/icons/svgs/16/layer-group.svg

<svg width="16" height="16" viewBox="0 0 16 16" fill="none" xmlns="http://www.w3.org/2000/svg">
<path d="M13.7099 7.53897L12.3482 6.92261L8.5608 8.63926C8.38268 8.71777 8.19519 8.75995 8.00066 8.75995C7.80613 8.75995 7.62098 8.71777 7.44052 8.64043L3.65312 6.92261L2.29097 7.53897C1.90426 7.71473 1.90426 8.30062 2.29097 8.47638L7.75176 10.9512C7.82979 10.9873 7.91477 11.0061 8.00078 11.0061C8.08679 11.0061 8.17177 10.9873 8.24979 10.9512L13.7106 8.47638C14.0966 8.30062 14.0966 7.71473 13.7099 7.53897V7.53897ZM2.29097 5.46962L7.75176 7.94909C7.90996 8.01939 8.09159 8.01939 8.24979 7.94909L13.7099 5.46962C14.0966 5.29385 14.0966 4.70797 13.7099 4.5322L8.24909 2.05273C8.09089 1.98242 7.90926 1.98242 7.75106 2.05273L2.29097 4.5322C1.90414 4.70797 1.90414 5.29385 2.29097 5.46962ZM13.7099 10.534L12.3534 9.91884L8.55893 11.6385C8.38268 11.7175 8.19519 11.7597 8.00066 11.7597C7.80613 11.7597 7.61981 11.7187 7.44099 11.6396L3.64656 9.91989L2.29003 10.5351C1.90332 10.7108 1.90332 11.2967 2.29003 11.4725L7.75082 13.9473C7.90902 14.0176 8.09066 14.0176 8.24886 13.9473L13.7096 11.4725C14.0966 11.2957 14.0966 10.7098 13.7099 10.534V10.534Z" fill="black"/>
</svg>

<svg width="16" height="16" viewBox="0 0 16 16" xmlns="http://www.w3.org/2000/svg">
    <path d="m13.71 7.539-1.362-.616-3.787 1.716A1.38 1.38 0 0 1 8 8.76c-.195 0-.38-.042-.56-.12L3.653 6.923l-1.362.616c-.387.176-.387.762 0 .937l5.46 2.475a.593.593 0 0 0 .499 0l5.46-2.475c.387-.175.387-.761 0-.937ZM2.29 5.469l5.46 2.48c.159.07.34.07.499 0l5.46-2.48c.387-.175.387-.761 0-.937l-5.46-2.48a.614.614 0 0 0-.499 0l-5.46 2.48c-.387.176-.387.762 0 .938Zm11.419 5.065-1.357-.615-3.794 1.72a1.357 1.357 0 0 1-1.118 0L3.647 9.92l-1.357.616c-.387.176-.387.762 0 .938l5.46 2.474c.159.07.34.07.499 0l5.46-2.474c.388-.177.388-.763 0-.939Z"/>
</svg>
